X:1     %Music
T:The Fair Flower of Northumberland
B:Bruce and Stokoe,  Northumbrian Minstrelsy, Newcastle-Upon Tyne, 188(reissued Llanerch)
M:6/8     %Meter
L:1/8     %
K:D
D |F2 A (AF) A |d c B A3 |
w:It was a knight_ in Scot-*land born, 
d e g B2 A | B d d d2
w:Fol-low, my love, come o-ver the strand, 
 A |(de) f B B A |A B d e2 
w:Was ta-*ken pris'-ner and left_ for-lorn, 
f/ e/ |d B A {c}d F F |E2 D D2 |]
w:Ev-en by the good Earl of Nor-thum-ber-land. 